icons/lightning.svg

<?xml version="1.0" standalone="no"?><!-- Generator: Gravit.io --><svg xmlns="http://www.w3.org/2000/svg" xmlns:xlink="http://www.w3.org/1999/xlink" width="96" height="96"><path d=" M 65.99999836858248 51.02638437376703 L 60.599998224025526 50.32464219948488 C 56.79999812230026 49.823397789283334 53.9999980473448 46.61543356399347 53.899998044667825 42.70572716442146 Q 53.899998044667825 42.60547828238115 54.09999805002179 41.30224281585715 L 59.59999819725572 14.736289075175497 L 29.999997404869458 45.21194921542916 L 35.39999754942641 45.91369138971131 C 39.199997651151676 46.414935799912854 41.99999772610713 49.62290002520272 42.09999772878411 53.53260642477473 Q 42.09999772878411 53.63285530681504 41.89999772343015 54.93609077333904 L 36.39999757619621 81.5020445140207 L 65.99999836858248 51.02638437376703 Z  M 26.701512006870914 91.61202601852077 Q 27.040518086849154 94.95948300584588 29.599997394161537 95.83763464578476 Q 31.624075023295966 96.5320911644641 33.215770040433846 95.51275019664524 C 34.145320492356696 94.91745471158221 35.52501693814824 93.79191097718738 36.29486554100506 93.0008522651528 L 74.89999860683376 53.33210866069412 L 76.09999863895752 51.02638437376703 C 76.49999864966546 50.32464219948488 76.59999865234242 49.422402261122095 76.39999864698848 48.520162322759326 C 75.99999863628055 45.7131936256307 73.599998572033 43.70821598482454 70.69999849440057 43.60796710278423 L 62.990573307250955 42.54195160554865 C 62.44386006106561 42.46635520519068 62.0919036638079 41.96642203151818 62.205105342540975 41.426240979246245 L 69.08978430020136 8.5736087080191 C 69.31618765766751 7.4932466034752325 69.40970275388626 5.724520252294619 69.29848376658103 4.626307570675434 Q 68.9594776866028 1.2788505833503168 66.39999837929041 0.40069894341143825 Q 64.37592075015598 -0.29375757526791535 62.78422573301809 0.7255833925509627 C 61.85467528109524 1.320878877613993 60.474978835303695 2.4464226120088237 59.70513023244688 3.237481324043401 L 22.494865171581736 41.47292689643442 C 21.725016568724918 42.263985608469 20.68626898729014 43.70117749994033 20.17667190959207 44.68033610589137 L 19.899997134494413 45.21194921542916 C 19.499997123786493 45.91369138971131 19.39999712110951 46.81593132807409 19.599997126463474 47.71817126643686 C 19.999997137171395 50.525139963565486 22.39999720141893 52.53011760437165 25.299997279051368 52.63036648641196 L 33.007934962951126 53.60735881567421 C 33.555469184522366 53.676759575828385 33.90833807207053 54.17171414813902 33.79543935006128 54.71195860009598 L 26.90911363494994 87.66449513680439 C 26.683316190931443 88.74498404071832 26.590293019565685 90.51381333690158 26.701512006870914 91.61202601852077 Z " fill-rule="evenodd" fill="#454545" stroke="none"/><mask id="_mask_1hIMYFl2g2zOMuEXhKaOG2CCLEfrvhau"><path d=" M 65.99999836858248 51.02638437376703 L 60.599998224025526 50.32464219948488 C 56.79999812230026 49.823397789283334 53.9999980473448 46.61543356399347 53.899998044667825 42.70572716442146 Q 53.899998044667825 42.60547828238115 54.09999805002179 41.30224281585715 L 59.59999819725572 14.736289075175497 L 29.999997404869458 45.21194921542916 L 35.39999754942641 45.91369138971131 C 39.199997651151676 46.414935799912854 41.99999772610713 49.62290002520272 42.09999772878411 53.53260642477473 Q 42.09999772878411 53.63285530681504 41.89999772343015 54.93609077333904 L 36.39999757619621 81.5020445140207 L 65.99999836858248 51.02638437376703 Z  M 26.701512006870914 91.61202601852077 Q 27.040518086849154 94.95948300584588 29.599997394161537 95.83763464578476 Q 31.624075023295966 96.5320911644641 33.215770040433846 95.51275019664524 C 34.145320492356696 94.91745471158221 35.52501693814824 93.79191097718738 36.29486554100506 93.0008522651528 L 74.89999860683376 53.33210866069412 L 76.09999863895752 51.02638437376703 C 76.49999864966546 50.32464219948488 76.59999865234242 49.422402261122095 76.39999864698848 48.520162322759326 C 75.99999863628055 45.7131936256307 73.599998572033 43.70821598482454 70.69999849440057 43.60796710278423 L 62.990573307250955 42.54195160554865 C 62.44386006106561 42.46635520519068 62.0919036638079 41.96642203151818 62.205105342540975 41.426240979246245 L 69.08978430020136 8.5736087080191 C 69.31618765766751 7.4932466034752325 69.40970275388626 5.724520252294619 69.29848376658103 4.626307570675434 Q 68.9594776866028 1.2788505833503168 66.39999837929041 0.40069894341143825 Q 64.37592075015598 -0.29375757526791535 62.78422573301809 0.7255833925509627 C 61.85467528109524 1.320878877613993 60.474978835303695 2.4464226120088237 59.70513023244688 3.237481324043401 L 22.494865171581736 41.47292689643442 C 21.725016568724918 42.263985608469 20.68626898729014 43.70117749994033 20.17667190959207 44.68033610589137 L 19.899997134494413 45.21194921542916 C 19.499997123786493 45.91369138971131 19.39999712110951 46.81593132807409 19.599997126463474 47.71817126643686 C 19.999997137171395 50.525139963565486 22.39999720141893 52.53011760437165 25.299997279051368 52.63036648641196 L 33.007934962951126 53.60735881567421 C 33.555469184522366 53.676759575828385 33.90833807207053 54.17171414813902 33.79543935006128 54.71195860009598 L 26.90911363494994 87.66449513680439 C 26.683316190931443 88.74498404071832 26.590293019565685 90.51381333690158 26.701512006870914 91.61202601852077 Z " fill-rule="evenodd" fill="white" stroke="none"/></mask><path d=" M 65.99999836858248 51.02638437376703 L 60.599998224025526 50.32464219948488 C 56.79999812230026 49.823397789283334 53.9999980473448 46.61543356399347 53.899998044667825 42.70572716442146 Q 53.899998044667825 42.60547828238115 54.09999805002179 41.30224281585715 L 59.59999819725572 14.736289075175497 L 29.999997404869458 45.21194921542916 L 35.39999754942641 45.91369138971131 C 39.199997651151676 46.414935799912854 41.99999772610713 49.62290002520272 42.09999772878411 53.53260642477473 Q 42.09999772878411 53.63285530681504 41.89999772343015 54.93609077333904 L 36.39999757619621 81.5020445140207 L 65.99999836858248 51.02638437376703 Z  M 26.701512006870914 91.61202601852077 Q 27.040518086849154 94.95948300584588 29.599997394161537 95.83763464578476 Q 31.624075023295966 96.5320911644641 33.215770040433846 95.51275019664524 C 34.145320492356696 94.91745471158221 35.52501693814824 93.79191097718738 36.29486554100506 93.0008522651528 L 74.89999860683376 53.33210866069412 L 76.09999863895752 51.02638437376703 C 76.49999864966546 50.32464219948488 76.59999865234242 49.422402261122095 76.39999864698848 48.520162322759326 C 75.99999863628055 45.7131936256307 73.599998572033 43.70821598482454 70.69999849440057 43.60796710278423 L 62.990573307250955 42.54195160554865 C 62.44386006106561 42.46635520519068 62.0919036638079 41.96642203151818 62.205105342540975 41.426240979246245 L 69.08978430020136 8.5736087080191 C 69.31618765766751 7.4932466034752325 69.40970275388626 5.724520252294619 69.29848376658103 4.626307570675434 Q 68.9594776866028 1.2788505833503168 66.39999837929041 0.40069894341143825 Q 64.37592075015598 -0.29375757526791535 62.78422573301809 0.7255833925509627 C 61.85467528109524 1.320878877613993 60.474978835303695 2.4464226120088237 59.70513023244688 3.237481324043401 L 22.494865171581736 41.47292689643442 C 21.725016568724918 42.263985608469 20.68626898729014 43.70117749994033 20.17667190959207 44.68033610589137 L 19.899997134494413 45.21194921542916 C 19.499997123786493 45.91369138971131 19.39999712110951 46.81593132807409 19.599997126463474 47.71817126643686 C 19.999997137171395 50.525139963565486 22.39999720141893 52.53011760437165 25.299997279051368 52.63036648641196 L 33.007934962951126 53.60735881567421 C 33.555469184522366 53.676759575828385 33.90833807207053 54.17171414813902 33.79543935006128 54.71195860009598 L 26.90911363494994 87.66449513680439 C 26.683316190931443 88.74498404071832 26.590293019565685 90.51381333690158 26.701512006870914 91.61202601852077 Z " fill-rule="evenodd" fill="none" stroke="none" stroke-width="16" mask="url(#_mask_1hIMYFl2g2zOMuEXhKaOG2CCLEfrvhau)"/></svg>

<svg xmlns="http://www.w3.org/2000/svg" width="96" height="96"><path d="M66 51.026l-5.4-.701c-3.8-.502-6.6-3.71-6.7-7.62q0-.1.2-1.403l5.5-26.566L30 45.212l5.4.702c3.8.5 6.6 3.709 6.7 7.619q0 .1-.2 1.403l-5.5 26.566L66 51.026zM26.702 91.612q.339 3.347 2.898 4.226 2.024.694 3.616-.325c.93-.596 2.309-1.721 3.079-2.512L74.9 53.332l1.2-2.306c.4-.701.5-1.604.3-2.506-.4-2.807-2.8-4.812-5.7-4.912l-7.71-1.066a.92.92 0 0 1-.785-1.116L69.09 8.574c.226-1.08.32-2.85.208-3.948Q68.96 1.28 66.4.401q-2.024-.695-3.616.325c-.93.595-2.309 1.72-3.079 2.511l-37.21 38.236c-.77.791-1.809 2.228-2.318 3.207l-.277.532c-.4.702-.5 1.604-.3 2.506.4 2.807 2.8 4.812 5.7 4.912l7.708.977c.547.07.9.565.787 1.105L26.91 87.664c-.226 1.081-.319 2.85-.207 3.948z" fill-rule="evenodd" fill="#454545"/></svg>
